packages/core/src/svgs/tokens/mono/TRAVA.svg

<svg width="24" height="24" viewBox="0 0 24 24" fill="none" xmlns="http://www.w3.org/2000/svg">
<path d="M10.5649 8.64644L9.27092 9.3875C9.01802 9.54038 8.8357 9.6875 8.57103 9.83448C8.53944 9.84765 8.51272 9.8703 8.49458 9.89925C8.47542 9.93095 8.46716 9.96814 8.47104 10.0051V16.3571C8.46783 16.3842 8.47285 16.4115 8.48544 16.4356C8.49803 16.4598 8.51762 16.4796 8.54162 16.4925C9.70033 17.1981 10.7767 17.9157 11.9352 18.6333C11.9557 18.6486 11.9804 18.6568 12.0059 18.6568C12.0313 18.6568 12.0561 18.6486 12.0764 18.6333L17.7873 15.2337C17.8815 15.1808 17.8815 15.1808 17.8815 15.2926V17.7687C17.8815 17.7981 17.8815 17.8275 17.8638 17.8511C17.8509 17.8763 17.8303 17.8969 17.805 17.9098L12.1117 21.38C12.0836 21.4005 12.0495 21.4115 12.0147 21.4115C11.9798 21.4115 11.9458 21.4005 11.9176 21.38L6.20078 17.9569C6.17571 17.9436 6.15522 17.9231 6.14196 17.898C6.12613 17.8736 6.11793 17.8449 6.11844 17.8157V8.72287C6.11666 8.69391 6.12353 8.66497 6.13819 8.63984C6.15285 8.61472 6.17462 8.5945 6.20078 8.58175L8.25343 7.32311C8.27888 7.30402 8.30984 7.2937 8.34165 7.2937C8.37347 7.2937 8.40443 7.30402 8.42987 7.32311L10.4708 8.57588C10.5093 8.58794 10.5425 8.61285 10.5649 8.64644Z" fill="white"/>
<path d="M14.2355 3.97642L14.4944 3.81762L16.4117 2.61191C16.4302 2.5976 16.453 2.58984 16.4763 2.58984C16.4998 2.58984 16.5226 2.5976 16.5411 2.61191C18.3055 3.72352 20.1111 4.77042 21.9108 5.81733C21.9402 5.82983 21.9646 5.8515 21.9806 5.87907C21.9965 5.90666 22.0029 5.93865 21.9991 5.97025V10.6931C22.0007 10.7237 21.9933 10.754 21.9775 10.7801C21.9619 10.8063 21.9386 10.8273 21.9108 10.8402C18.6467 12.7634 15.4059 14.7337 12.1476 16.6805C12.1244 16.6973 12.0967 16.7062 12.0682 16.7062C12.0396 16.7062 12.0119 16.6973 11.9887 16.6805C11.4359 16.3453 10.8714 16.0218 10.3184 15.6924C10.2913 15.6793 10.2689 15.6581 10.2541 15.6319C10.2394 15.6056 10.2331 15.5754 10.2361 15.5453V13.0163C10.2361 12.8928 10.2361 12.8928 10.3478 12.9575C10.7242 13.1751 11.0948 13.3985 11.4771 13.6044C11.6755 13.7114 11.8736 13.8192 12.0711 13.928C12.0947 13.928 12.1181 13.9221 12.1358 13.9103C14.6472 12.4163 17.0704 10.9401 19.5818 9.45207C19.6524 9.4227 19.6524 9.37563 19.6465 9.31099V7.39946C19.6524 7.34064 19.6583 7.29947 19.5936 7.27006C17.788 6.18787 16.0823 5.09978 14.2767 4.01171L14.2355 3.97642Z" fill="white"/>
<path d="M17.8813 8.21699C17.1696 8.65222 16.452 9.08745 15.7462 9.53442C15.7194 9.55542 15.6862 9.56681 15.6522 9.56681C15.618 9.56681 15.585 9.55542 15.5581 9.53442L8.38262 5.29975C8.3559 5.28103 8.32408 5.27099 8.29146 5.27099C8.25884 5.27099 8.227 5.28103 8.20029 5.29975C6.94753 6.06436 5.69476 6.81719 4.43612 7.5759C4.40793 7.58935 4.38476 7.61141 4.36996 7.6389C4.35515 7.6664 4.34949 7.6979 4.35378 7.72882V11.9988C4.30673 12.0047 4.28908 11.9812 4.25967 11.9635L2.08352 10.6931C2.0558 10.6808 2.03282 10.6598 2.01799 10.6333C2.00315 10.6068 1.99727 10.5762 2.00118 10.5461V6.37019C1.9995 6.33968 2.00701 6.30935 2.02274 6.28314C2.03846 6.25694 2.06168 6.23604 2.08939 6.22315L8.20617 2.61779C8.23162 2.5987 8.26258 2.58838 8.29439 2.58838C8.3262 2.58838 8.35717 2.5987 8.38262 2.61779L9.31193 3.16477L17.8047 8.16406L17.8813 8.21699Z" fill="white"/>
</svg>

<svg xmlns="http://www.w3.org/2000/svg" width="24" height="24" fill="none" viewBox="0 0 24 24">
    <path fill="#fff" d="m10.565 8.646-1.294.741c-.253.153-.435.3-.7.447a.165.165 0 0 0-.1.171v6.352a.135.135 0 0 0 .07.136c1.16.705 2.236 1.423 3.394 2.14a.12.12 0 0 0 .141 0l5.711-3.4c.095-.052.095-.052.095.06v2.476c0 .03 0 .059-.018.082a.14.14 0 0 1-.059.059l-5.693 3.47a.165.165 0 0 1-.194 0L6.2 17.957a.14.14 0 0 1-.059-.059.15.15 0 0 1-.024-.082V8.723a.15.15 0 0 1 .083-.141l2.052-1.259a.15.15 0 0 1 .177 0l2.04 1.253a.18.18 0 0 1 .095.07"/>
    <path fill="#fff" d="m14.236 3.976.258-.158 1.918-1.206a.106.106 0 0 1 .13 0c1.763 1.112 3.57 2.158 5.369 3.205a.15.15 0 0 1 .088.153v4.723a.15.15 0 0 1-.088.147c-3.264 1.923-6.505 3.894-9.763 5.84a.135.135 0 0 1-.16 0c-.552-.335-1.117-.658-1.67-.988a.15.15 0 0 1-.082-.147v-2.529c0-.123 0-.123.112-.059.376.218.747.441 1.13.647q.297.16.593.324a.1.1 0 0 0 .065-.018c2.511-1.494 4.934-2.97 7.446-4.458.07-.03.07-.076.064-.141V7.399c.006-.058.012-.1-.052-.129-1.806-1.082-3.512-2.17-5.317-3.258z"/>
    <path fill="#fff" d="M17.881 8.217c-.711.435-1.429.87-2.135 1.317a.15.15 0 0 1-.188 0L8.383 5.3a.16.16 0 0 0-.183 0c-1.252.764-2.505 1.517-3.764 2.276a.15.15 0 0 0-.082.153v4.27c-.047.006-.065-.018-.094-.036l-2.176-1.27A.14.14 0 0 1 2 10.546V6.37a.15.15 0 0 1 .088-.147l6.117-3.605a.15.15 0 0 1 .177 0l.929.547 8.493 5z"/>
</svg>
